X:1
T:Vincavi la pieta
T:Vincavi la pieta
T:Giovanni Francesco Violanti
T:Source : Secondo libro delle villanelle a 3 voci---Venetia---Figlio d'A.Gardano---1574. Editor : André Vierendeels (26/03/16).
T:Notes : Original clefs : C1, C2, C3 Editorial accidentals above the staff "Alla napolitana" Music by composers  from Bari, collected by G.de Antiquis 
T:©
T:©
C:Giovanni Francesco Violanti
Z:©
%%score [ 1 2 3 ]
L:1/8
Q:1/4=96
M:4/4
K:F
V:1 treble nm="Soprano" snm="S"
V:2 treble nm="Alto" snm="A"
V:3 treble-8 nm="Tenor" snm="T"
V:1
 A4 G2 F2 | G2 G2 A4 | z2 c2 c2 B2 | A2 A2 G4 | A4 F2 G2 | E4 D4 ::[M:3/4] A2 A2 A2 | %7
w: 1)Vin- ca- vi|la pie- ta,|vin- ca- vi|la pie- ta|1)del ve- ro'a-|mo- re,|che tan- to|
w: 2)S'i- o t'ho|do- na- to,|s'io t'ho do-|na- to'il svi-|2)sce- ra- to|co- re,|che di far-|
w: 3)Non re- fu-|to mo- rir,|non re- fu-|to mo- rir,|3)a tut- te|l'ho- re,|pur ch'hab- bi-|
w: 4)Tu fai l'af-|fan- no mio,|tu fai l'af-|fan- no mio,|4)di not- t'e|gior- no,|e fai quan-|
[M:4/4] B4 A2 F2 | F2 F2 B4 | A2 c4 c2 | A2 B2 A4 | G2 G3 G G2 | G2 A2 B4 | A4 z2 B2- | %14
w: tem- po, che|tan- to tem-|1)po t'ho por-|ta- to'e por-|to, che'l ri- me-|di- o non|mal, che'l|
w: * mi, che|di far- mi|2)mo- rir poi|n'hai gran tor-|to, che'l ri- me-|di- o non|mal, che'l|
w: a, pur ch'hab-|bi- a non|3)mo- rir qual|che con- for-|to, ch'el ri- me-|di- o non|mal, ch'el|
w: to, e fai|quan- to'è l'A-|4)mor, quan- to'è|to'è la fe-|de, piac- cia- ti|dar al mi-|o, piac-|
 BA A2 B2 G2 | A4 B4 | G4 z2 d2 | B2 c2 A4 |[M:2/4] G4 :| %19
w: 1) ri- me- dio non|mal, non|mal, do-|po son mor-|to.|
w: 2) ri- me- dio non|mal, non|mal, do-|po son mor-|to.|
w: 3) ri- me- dio non|mal, non|mal, do-|po son mor-|to.|
w: 4) cia- ti dar al|mio, ser-|vir mer-|ce- * *|de.|
V:2
 F4 E2 F2 | F2 E2 F4 | z2 A2 A2 G2 | F2 F2 E4 | F3 E D2 D2- |"^#" D2 C2 D4 ::[M:3/4] F2 F2 F2 | %7
w: 1)Vin- ca- vi|la pie- ta,|vin- ca- vi|la pie- ta|1)del ve- ro'a- mo-|* * re,|che tan- to|
w: 2)S'i- o t'ho|do- na- to,|s'io t'ho do-|na- to'il svi-|2)sce- ra- to co-|* * re,|che di far-|
[M:4/4] G4 F2 D2 | D2 F4 E2 | F2 A4 G2 |"^#" F2 G4 F2 | G2 E3 E D2 | E2 C2 D2 G2- | GF F2 G2 _E2 | %14
w: tem- po, che|tan- to tem-|1)po t'ho por-|ta- to'e por-|to, che'l ri- me-|dio non mal, che'l|_ ri- me- dio non|
w: * mi, che|di far mi|2)mo- rir poi|n'hai gran tor-|to, che'l ri- me-|dio non mal, che'l|_ ri- me- dio non|
 D4 z2 G2- | GF F2 G2 G2 |"^-natural" E4 A4 |"^#" G2 G4 F2 |[M:2/4] G4 :| %19
w: 1)mal, che'l|_ ri- me- dio non|mal, do-|po son mor-|to.|
w: 2)mal, che'l|_ ri- me- dio non|mal, do-|po son mor-|to.|
V:3
 F4 c2 d2 | c2 c2 F4 | z2 F2 F2 G2 | A2 F2 c4 | F4 B2 G2 | A4 D4 ::[M:3/4] d2 d2 d2 | %7
w: 3)Non re- fu-|to mo- rir,|non re- fu-|to mo- rir,|3)a tut- te|l'ho- re,|pur ch'hab- bi-|
w: 4)Tu fai l'af-|fan- no mio,|tu fai l'af-|fan- no mio,|4)di not- t'e|gior- no,|e fai quan-|
[M:4/4] GABc d2 B2 | B2 A2 G4 | F2 f4 c2 | d2 G2 d4 | G2 c3 B B2 | c2 A2 GABc | d4 z2 g2- | %14
w: a, _ _ _ _ pur|ch'hab- bia non|3)mo- rir qual-|che con- for-|to, che'l ri- me-|dio non mal, _ _ _|_ che'l|
w: to'è _ _ _ _ l'A-|mor, quan- to'è|4)l'A- mor quan-|to'e la fe-|de, pic- cia- ti|dar al mio, _ _ _|_ piac-|
"^b" gf f2 g2 e2 | d4 G4 | c4 d4 |"^b" e2 c2 d4 |[M:2/4] G4 :| %19
w: 3) ri- me- dio non|mal, do-|po son|mor- * *|to.|
w: 4) cia- ti dar al|mio, ser-|vir mer-|ce- * *|de.|

